!!!OTL: 57. Suse, Kindken, suse!
!!!ARE: Europa, Mitteleuropa, Deutschland, Westfalen
!!!SCT: K0057
!!!TXL: @@NDS
!!!YEM: Copyright 1995, estate of Helmut Schaffrath.
**kern	**text
*clefG2	*
*M2/4	*
*k[f#]	*
*G:	*
=1	=1
{8b/	Su-
8b/	-ſe,
8a	Kind-
8a	-ken,
=2	=2
4g	ſu-
8d	-ſe!
8r}	.
=3	=3
{8b/	Fritʒ-
8b/	-ken
8a	de
8a	hört
=4	=4
4g	u-
8d	-ſe*;
8r}	.
=5	=5
{8b	Hör-
8b	-te
8b	Fritʒ-
8b	-ken
=6	=6
8.cc	u-
16cc	-ſe
8cc}	nich,
{8cc	dann
=7	=7
8a	ſchlöp'
8a	in
8a	u-
8a	-ſen
=8	=8
8.b	Hu-
16b	-ſe
8b	nich.
8r}	.
=9	=9
{8b/	Su-
8b/	-ſe,
8a	Kind-
8a	-ken
=10	=10
4g	ſu-
8d	-ſe!
!LO:N:vis=4	!
8r}	.
==	==
!!!AGN: Kinder -, Wiegen - Lied
!!!ONB: ESAC (Essen Associative Code) Database: KINDER
!!!AMT: simple duple
!!!AIN: vox
!!!EED: Helmut Schaffrath
!!!EEV: 1.0
!!Westfalen: Erk II. 3, 8
!!!GTL: I. Wiegenlieder.
!!@@COMMENT:"*uſe - unſer."
!!@@END:
!!!URL-scan: https://archive.org/details/DeutschesKinderliedUndKinderspiel/page/14/mode/1up
!!!ENC: Anna Maria Matuszewska
!!!EEV: 2024/29/08
*-	*-
